images_elementary_svg/cmd/sc_paralefttoright.svg

<?xml version="1.0" encoding="UTF-8" standalone="no"?>
<svg
   xmlns:dc="http://purl.org/dc/elements/1.1/"
   xmlns:cc="http://creativecommons.org/ns#"
   xmlns:rdf="http://www.w3.org/1999/02/22-rdf-syntax-ns#"
   xmlns:svg="http://www.w3.org/2000/svg"
   xmlns="http://www.w3.org/2000/svg"
   xmlns:xlink="http://www.w3.org/1999/xlink"
   xmlns:sodipodi="http://sodipodi.sourceforge.net/DTD/sodipodi-0.dtd"
   xmlns:inkscape="http://www.inkscape.org/namespaces/inkscape"
   viewBox="0 0 16 16"
   version="1.1"
   id="svg6"
   sodipodi:docname="sc_paralefttoright.svg"
   inkscape:export-filename="/home/rizmut/Dokumen/Rizmut/Github/libreoffice-style-elementary/images_elementary/cmd/sc_paralefttoright.png"
   inkscape:export-xdpi="96"
   inkscape:export-ydpi="96"
   inkscape:version="0.92.3 (unknown)"><metadata
   id="metadata12">
  <rdf:RDF>
    <cc:Work
       rdf:about="">
      <dc:format>image/svg+xml</dc:format>
      <dc:type
         rdf:resource="http://purl.org/dc/dcmitype/StillImage" />
      <dc:title></dc:title>
    </cc:Work>
  </rdf:RDF>
</metadata>
<defs
   id="defs10">
  <linearGradient
     id="linearGradient2867-449-88-871-390-598-476-591-434-148-57-177-641-289-620-227-114-444-680-744-4-1-5">
    <stop
       id="stop5430-5-0-9"
       style="stop-color:#737373;stop-opacity:1"
       offset="0" />
    <stop
       id="stop5432-2-0-0"
       style="stop-color:#636363;stop-opacity:1"
       offset="0.26238" />
    <stop
       id="stop5434-9-6-8"
       style="stop-color:#4b4b4b;stop-opacity:1"
       offset="0.704952" />
    <stop
       id="stop5436-2-7-0"
       style="stop-color:#3f3f3f;stop-opacity:1"
       offset="1" />
  </linearGradient>
  <radialGradient
     inkscape:collect="always"
     xlink:href="#linearGradient2867-449-88-871-390-598-476-591-434-148-57-177-641-289-620-227-114-444-680-744-4-1-5"
     id="radialGradient858"
     cx="10"
     cy="1.3404121"
     fx="10"
     fy="1.3404121"
     r="5.0070081"
     gradientTransform="matrix(-2.7960807,0,0,-2.995801,37.960807,4.0156081)"
     gradientUnits="userSpaceOnUse" />
  <radialGradient
     inkscape:collect="always"
     xlink:href="#linearGradient2867-449-88-871-390-598-476-591-434-148-57-177-641-289-620-227-114-444-680-744-4-1-5"
     id="radialGradient870"
     cx="9"
     cy="1.2392325"
     fx="9"
     fy="1.2392325"
     r="5.4990239"
     gradientTransform="matrix(-2.5459062,9.7486168e-8,-1.1141277e-7,-2.9096073,31.913155,3.6056791)"
     gradientUnits="userSpaceOnUse" />
  <linearGradient
     id="a"
     gradientTransform="matrix(0.49219581,0,0,0.45839231,4.7872558,-5.0901978)"
     gradientUnits="userSpaceOnUse"
     x1="23.731871"
     x2="23.731871"
     y1="5.3943448"
     y2="39.735077">
    <stop
       offset="0"
       stop-color="#90dbec"
       id="stop2" />
    <stop
       offset=".26238"
       stop-color="#55c1ec"
       id="stop4" />
    <stop
       offset="0.7055406"
       stop-color="#3689e6"
       id="stop6" />
    <stop
       offset="1"
       stop-color="#2b63a0"
       id="stop8" />
  </linearGradient>
  <linearGradient
     id="b"
     gradientTransform="matrix(0,-0.5372019,0.57681717,0,-15.719238,19.569137)"
     gradientUnits="userSpaceOnUse"
     x1="40.957993"
     x2="18.680689"
     y1="46.97065"
     y2="46.97065">
    <stop
       offset="0"
       stop-color="#fff"
       id="stop11" />
    <stop
       offset=".45000002"
       stop-color="#fff"
       stop-opacity=".235294"
       id="stop13" />
    <stop
       offset=".65000004"
       stop-color="#fff"
       stop-opacity=".156863"
       id="stop15" />
    <stop
       offset="1"
       stop-color="#fff"
       stop-opacity=".392157"
       id="stop17" />
  </linearGradient>
</defs>
<sodipodi:namedview
   pagecolor="#ffffff"
   bordercolor="#666666"
   borderopacity="1"
   objecttolerance="10"
   gridtolerance="10"
   guidetolerance="10"
   inkscape:pageopacity="0"
   inkscape:pageshadow="2"
   inkscape:window-width="1366"
   inkscape:window-height="706"
   id="namedview8"
   showgrid="true"
   inkscape:zoom="14.75"
   inkscape:cx="8.4355329"
   inkscape:cy="2.3116304"
   inkscape:window-x="0"
   inkscape:window-y="0"
   inkscape:window-maximized="1"
   inkscape:current-layer="svg6"
   inkscape:snap-global="false">
  <inkscape:grid
     type="xygrid"
     id="grid822" />
</sodipodi:namedview>

/&gt;<path
   sodipodi:type="inkscape:offset"
   inkscape:radius="0.49301782"
   inkscape:original="M 7.3398438 1.9863281 C 5.8281943 1.9863281 4.7521322 2.3115927 4.0507812 2.8945312 L 4.046875 2.8964844 C 3.3439551 3.4714678 2.9863281 4.3040715 2.9863281 5.5507812 C 2.9863281 6.8484772 3.3691134 7.7453466 4.1328125 8.3886719 L 4.1347656 8.390625 C 4.8950381 9.0354193 6.0118148 9.3867188 7.5546875 9.3867188 L 7.7421875 9.3867188 C 8.013474 9.3873971 8.2333526 9.6063794 8.234375 9.8769531 L 8.234375 14.015625 L 9.0078125 14.015625 C 9.0074125 10.732754 9.002 6.8322174 9 3 L 9.9941406 3 L 11 3 L 12 3 L 12 14 L 13 14 L 13 2 C 10.711323 2.0000001 9.8374707 1.9920581 7.3398438 1.9863281 z "
   style="fill:url(#radialGradient870);fill-opacity:1"
   id="path860"
   d="m 7.3398438,1.4941406 c -1.582372,0 -2.780857,0.3377192 -3.6035157,1.0214844 a 0.49306712,0.49306712 0 0 0 -0.00195,0 C 2.9143475,3.1864016 2.4941406,4.2097879 2.4941406,5.5507812 c 0,1.3946474 0.4460189,2.4783558 1.3203125,3.2148438 a 0.49306712,0.49306712 0 0 0 0.00195,0.00195 c 0.874538,0.7417039 2.1205712,1.1113281 3.7382813,1.1113281 h 0.1875 V 14.015625 A 0.49306712,0.49306712 0 0 0 8.234375,14.507812 H 9.0078125 A 0.49306712,0.49306712 0 0 0 9.5,14.015625 C 9.4996178,10.878963 9.4943733,7.1574501 9.4921875,3.4921875 H 9.9941406 11 11.507812 V 14 A 0.49306712,0.49306712 0 0 0 12,14.492188 h 1 A 0.49306712,0.49306712 0 0 0 13.492188,14 V 2 A 0.49306712,0.49306712 0 0 0 13,1.5078125 c -2.287536,1e-7 -3.1597949,-0.00794 -5.6582031,-0.013672 a 0.49306712,0.49306712 0 0 0 -0.00195,0 z M 3.7363281,2.515625 3.8261719,2.4550781 a 0.49306712,0.49306712 0 0 0 -0.089844,0.060547 z" />
<path
   d="m7.3398438 1c-1.6538513 0-2.9809814.3566504-3.9218751 1.1386719-.949787.7781355-1.4179687 1.9656127-1.4179687 3.4121093 0 1.502354.4979981 2.7495415 1.4941406 3.5898438 1.1556579 1.080346 2.873115 1.222734 3.7401359 1.230466h.014111v4.134765c-.0011129.272862.2205646.49454.4941437.494144h1.7578125c.273579.000396.495257-.221281.494141-.494141l.0058593-10.505859h1v10.517578c-.000233.266531.215891.482655.482422.482422h2.035156c.266531.000233.482655-.215891.482422-.482422v-13.0351561c.000233-.2665307-.215891-.48265485-.482422-.4824219h-1.673828-.361328-1.9824223-.5zm5.6605002 1v12h-1v-11h-1-1.0058593-.994141c.002 3.8322174.0074 7.732754.0078 11.015625h-.773437v-4.1386719c-.0010224-.2705737-.220889-.4895559-.4921755-.4902343h-.1878437c-1.5428727 0-2.6596495-.3512995-3.419922-.9960938l-.00195-.00195c-.7636991-.6433253-1.1464874-1.5401978-1.1464874-2.8378938 0-1.2467097.3576269-2.0793134 1.0605468-2.6542968l.00391-.00195c.701351-.5829385 1.7774094-.9082063 3.2890589-.9082063 2.4976269.0057282 3.3718232.0136719 5.6605002.0136719z"
   id="path4"
   style="fill-opacity:0.43137255;fill:#000000;stroke:none"
   fill="#565656" />
<path
   d="m13.000344 2.0000002v11.9999998h-1v-10.9999998h-1-1.0058593-.994141c.002 3.8322174.0074 7.7327538.0078 11.0156248h-.773437v-4.1386717c-.0010224-.2705737-.220889-.4895559-.4921755-.4902343h-.1878437c-1.5428727 0-2.6596495-.3512995-3.419922-.9960938l-.00195-.00195c-.7636991-.6433253-1.1464874-1.5401978-1.1464874-2.8378938 0-1.2467097.3576269-2.0793134 1.0605468-2.6542968l.00391-.00195c.701351-.5829385 1.7774094-.9082063 3.2890589-.9082063 2.4976269.00573 3.3718232.013672 5.6605002.013672z"
   id="path2"
   style="fill-opacity:1;fill:url(#radialGradient858)"
   fill="#8c8c8c" />
<g
   transform="matrix(0.64678195,0,0,0.64678195,-6.46782,9.712273)"
   id="g30">
  <path
     style="display:block;fill:url(#a)"
     inkscape:connector-curvature="0"
     d="M 16.96325,8.0542218 24.667389,2.8444545 16.98178,-2.4439076 v 3.6474278 h -6.20383 l -0.01853,3.1290906 h 6.20383 z"
     display="block"
     id="path24"
     sodipodi:nodetypes="cccccccc" />
  <path
     style="display:block;fill:#ffffff;fill-opacity:0.80882353;stroke:none;stroke-width:1;stroke-linejoin:round;stroke-miterlimit:7;stroke-dasharray:none"
     d="M 4.5195312 6.6191406 A 1.5132844 1.5132844 0 0 0 3.0019531 8.1328125 L 3.0019531 8.6328125 C 3.1512171 8.8135044 3.3113197 8.9864053 3.4941406 9.140625 C 4.6497985 10.220971 6.3673541 10.363362 7.234375 10.371094 L 7.2480469 10.371094 L 7.2480469 14.505859 C 7.2475626 14.624605 7.2954162 14.729179 7.3652344 14.814453 L 10.333984 12.804688 A 1.5132844 1.5132844 0 0 0 10.34375 10.304688 L 5.3730469 6.8847656 A 1.5132844 1.5132844 0 0 0 4.5195312 6.6191406 z "
     transform="matrix(1.5461161,0,0,1.5461161,10.000001,-15.016302)"
     id="path1481" />
  <path
     inkscape:connector-curvature="0"
     d="M 16.96325,8.054222 24.667389,2.8444547 16.98178,-2.4439076 V 1.2035202 H 10.77795 L 10.75942,4.332611 h 6.20383 z"
     style="display:block;fill:#46a9eb;fill-opacity:0.98431402;stroke:#2f78c8;stroke-width:1.54611611;stroke-linejoin:round;stroke-miterlimit:7;stroke-dasharray:none"
     id="path26"
     sodipodi:nodetypes="cccccccc" />
  <path
     style="display:block;fill:none;stroke:url(#b);stroke-width:1.54611611;stroke-miterlimit:7;stroke-dasharray:none"
     d="M 18.486328,0.54101562 V 2.203125 a 0.50433123,0.50433123 0 0 1 -0.503906,0.5039062 h -5.708984 l -0.002,0.1210938 h 5.691407 a 0.50433123,0.50433123 0 0 1 0.503906,0.5039062 v 1.71875 l 3.673828,-2.2148437 z"
     id="path28" />
</g>
</svg>

<svg xmlns="http://www.w3.org/2000/svg" xmlns:xlink="http://www.w3.org/1999/xlink" viewBox="0 0 16 16"><defs><linearGradient id="a"><stop offset="0" stop-color="#737373"/><stop offset=".262" stop-color="#636363"/><stop offset=".705" stop-color="#4b4b4b"/><stop offset="1" stop-color="#3f3f3f"/></linearGradient><radialGradient xlink:href="#a" id="c" cx="10" cy="1.34" fx="10" fy="1.34" r="5.007" gradientTransform="matrix(-2.79608 0 0 -2.9958 37.96 4.016)" gradientUnits="userSpaceOnUse"/><radialGradient xlink:href="#a" id="b" cx="9" cy="1.239" fx="9" fy="1.239" r="5.499" gradientTransform="matrix(-2.5459 0 0 -2.9096 31.913 3.606)" gradientUnits="userSpaceOnUse"/><linearGradient id="d" gradientTransform="matrix(.4922 0 0 .4584 4.787 -5.09)" gradientUnits="userSpaceOnUse" x1="23.732" x2="23.732" y1="5.394" y2="39.735"><stop offset="0" stop-color="#90dbec"/><stop offset=".262" stop-color="#55c1ec"/><stop offset=".706" stop-color="#3689e6"/><stop offset="1" stop-color="#2b63a0"/></linearGradient><linearGradient id="e" gradientTransform="matrix(0 -.5372 .57682 0 -15.72 19.57)" gradientUnits="userSpaceOnUse" x1="40.958" x2="18.681" y1="46.971" y2="46.971"><stop offset="0" stop-color="#fff"/><stop offset=".45" stop-color="#fff" stop-opacity=".235"/><stop offset=".65" stop-color="#fff" stop-opacity=".157"/><stop offset="1" stop-color="#fff" stop-opacity=".392"/></linearGradient></defs>/&gt;<path d="M7.34 1.494c-1.583 0-2.78.338-3.604 1.022a.493.493 0 0 0-.002 0c-.82.67-1.24 1.694-1.24 3.035 0 1.395.446 2.48 1.32 3.216a.493.493 0 0 0 .002.002c.875.74 2.12 1.11 3.74 1.11h.186v4.138a.493.493 0 0 0 .492.492h.774a.493.493 0 0 0 .492-.492c0-3.137-.006-6.86-.008-10.524h2.016V14a.493.493 0 0 0 .492.492h1a.493.493 0 0 0 .492-.492V2A.493.493 0 0 0 13 1.508c-2.288 0-3.16-.008-5.658-.014a.493.493 0 0 0-.002 0zM3.736 2.516l.09-.06a.493.493 0 0 0-.09.06z" fill="url(#b)"/><path d="M7.34 1c-1.654 0-2.98.357-3.922 1.14C2.468 2.916 2 4.103 2 5.55c0 1.503.498 2.75 1.494 3.59 1.156 1.08 2.873 1.223 3.74 1.23h.014v4.136c0 .273.22.494.495.494H9.5c.274 0 .496-.22.494-.494L10 4h1v10.518c0 .266.216.482.483.482h2.035c.266 0 .483-.216.482-.482V1.482c0-.266-.216-.482-.482-.482H9zM13 2v12h-1V3H9c.002 3.832.008 7.733.008 11.016h-.773v-4.14c0-.27-.22-.49-.492-.49h-.188c-1.543 0-2.66-.35-3.42-.995h-.002c-.764-.645-1.147-1.542-1.147-2.84 0-1.246.358-2.08 1.06-2.654h.005c.702-.584 1.778-.91 3.29-.91C9.837 1.992 10.712 2 13 2z" fill-opacity=".431"/><path d="M13 2v12h-1V3H9c.002 3.832.008 7.733.008 11.016h-.773v-4.14c0-.27-.22-.49-.492-.49h-.188c-1.543 0-2.66-.35-3.42-.995h-.002c-.764-.645-1.147-1.542-1.147-2.84 0-1.246.358-2.08 1.06-2.654h.005c.702-.584 1.778-.91 3.29-.91C9.837 1.992 10.712 2 13 2z" fill="url(#c)"/><path d="M16.963 8.054l7.704-5.21-7.685-5.288v3.648h-6.204l-.02 3.13h6.205z" display="block" fill="url(#d)" transform="translate(-6.468 9.712) scale(.64678)"/><path d="M4.52 6.62a1.513 1.513 0 0 0-1.518 1.513v.5c.15.18.31.353.492.508 1.156 1.08 2.873 1.223 3.74 1.23h.014v4.136c0 .12.047.223.117.308l2.97-2.01a1.513 1.513 0 0 0 .01-2.5l-4.972-3.42a1.513 1.513 0 0 0-.853-.265z" display="block" fill="#fff" fill-opacity=".809"/><path d="M4.503 14.92l4.983-3.368-4.97-3.42v2.358H.502L.49 12.514h4.013z" display="block" fill="#46a9eb" fill-opacity=".984" stroke="#2f78c8" stroke-width=".99992188" stroke-linejoin="round" stroke-miterlimit="7"/><path d="M18.486.54v1.663a.504.504 0 0 1-.504.504h-5.71v.12h5.69a.504.504 0 0 1 .505.505v1.72l3.674-2.216z" display="block" fill="none" stroke="url(#e)" stroke-width="1.546" stroke-miterlimit="7" transform="translate(-6.468 9.712) scale(.64678)"/></svg>
